X:1
T:Oh Susanna
C:Stephen Foster
M:4/4
L:1/8
Q:120
K:G
%% Demonstrates melodic contour: arch shape, stepwise vs leaps
D2 | G2 A2 B2 d2 | d2 B2 G2 A2 | B2 B2 A2 G2 | A4 z2 D2 |
G2 A2 B2 d2 | d2 B2 G2 A2 | B2 B2 A2 A2 | G4 z2 ||
c2 | c4 e4 | e4 d2 B2 | d4 B4 | G4 z2 D2 |
G2 A2 B2 d2 | d2 B2 G2 A2 | B2 B2 A2 A2 | G4 z2 |]
